X:11
T:John Roy Lyall
C:Joe Buchanan's Scottish Tome - Page 509.1
I:509 1
Z:Carl Allison
R:Air
L:1/8
M:4/4
K:Eb
E2 | G2 G2 F3 G/F/ | E2 E2 F2 GB | c2 ec B2 G2 | F6 EF |
G2 G2 F>A GF | E2 E2 e3 c | B2 EF G2 F2 | E6 :|
ef | g2 B2 d3 e/f/ | e2 e2 E2 ed | c3 e/c/ B2 G2 | F6 ef |
g2 B2 d3 e/f/ | e2 E2 e3 c | B2 EF G2 F2 | E6 ef |
g2 B2 d3 e/f/ | e2 e2 E2 ed | c3 e/c/ B2 G2 | F6 EF |
G2 G2 F>A GF | E2 E2 !fermata!e2 c2 | B2 EF G2 F2 | E6 |]
